X:12
T:Exile's Jig, The
R:hop jig
D:Sweeney's Men
Z:id:hn-slipjig-12
M:9/8
K:Edor
edB B2A G2E|E2e e2d efg|edB B2A G2A|BAB d2B def:|
e2f gfe fed|Bee edB edB|e2f gfe fed|BAB d2B def|
e2f gfe fed|Bee e2d efg|agf gfe fed|BAB d2B def||
<end>
<start>
